Icons/Colored/TreeDead.svg

<svg xmlns="http://www.w3.org/2000/svg" xml:space="preserve" fill-rule="evenodd" stroke-linejoin="round" stroke-miterlimit="2" clip-rule="evenodd" viewBox="0 0 64 64">
  <g id="brown">
    <rect width="8" height="7.391" x="29" y="48.648" fill="#754600"/>
    <path fill="#893d00" d="m45.457 42.246 2.176 5.422c.074.184.113.375.113.57 0 .965-.937 1.762-2.074 1.762H20.328c-1.137 0-2.074-.797-2.074-1.762 0-.191.035-.386.109-.566l2.18-5.426c-1.004-.07-1.797-.656-1.797-1.363 0-.149.039-.297.109-.442L22.563 33h-.485c-.98 0-1.789-.41-1.789-.906 0-.102.031-.199.094-.297l6.476-9.625h-.23c-.574 0-1.043-.301-1.043-.664a.43.43 0 0 1 .055-.215l6.371-11.898c.14-.27.543-.45.988-.45.445 0 .844.18.988.45l6.371 11.898c.036.07.055.141.055.215 0 .363-.469.664-1.043.664h-.23l6.472 9.625a.505.505 0 0 1 .098.297c0 .496-.809.906-1.789.906h-.488l3.711 7.441c.07.141.109.289.109.442 0 .707-.793 1.293-1.797 1.363Zm-2.66-.992h1.125c.98 0 1.789-.441 1.789-.973a.571.571 0 0 0-.098-.316L40.605 32h1.614c.816 0 1.492-.41 1.492-.906a.595.595 0 0 0-.082-.297l-5.399-9.625h.176c.489 0 .887-.254.887-.563a.39.39 0 0 0-.047-.183L33.84 10.324c-.125-.226-.461-.379-.84-.379-.379 0-.719.153-.84.379l-5.406 10.102a.39.39 0 0 0-.047.183c0 .309.398.563.887.563h.394l-5.398 9.629a.57.57 0 0 0-.082.293c0 .496.676.906 1.496.906h1.391l-5.012 7.969a.577.577 0 0 0-.094.312c0 .532.809.973 1.789.973h1.121l-3.785 6.016a.651.651 0 0 0-.105.335c0 .575.875 1.043 1.929 1.043h23.524c1.054 0 1.926-.468 1.926-1.043a.626.626 0 0 0-.102-.335l-3.789-6.016Z"/>
    <path fill="#754600" d="m33.109 9.434.051.511-.531 7.395-3.781 9.172 3.507-5.34-.32 4.426-3.523 7.211 3.363-4.938-.516 7.152-5.652 10.415 5.422-7.176L29 48.648h7.977l-1.93-10.386 5.266 8.523-5.485-11.762-.476-7.152 3.765 5.942-3.941-8.559-.336-4.992 2.398 3.636-2.601-6.64-.528-7.824Z"/>
  </g>
</svg>

<?xml version="1.0" encoding="UTF-8" standalone="no"?>
<!DOCTYPE svg PUBLIC "-//W3C//DTD SVG 1.1//EN" "http://www.w3.org/Graphics/SVG/1.1/DTD/svg11.dtd">
<svg width="100%" height="100%" viewBox="0 0 64 64" version="1.1" xmlns="http://www.w3.org/2000/svg" xmlns:xlink="http://www.w3.org/1999/xlink" xml:space="preserve" xmlns:serif="http://www.serif.com/" style="fill-rule:evenodd;clip-rule:evenodd;stroke-linejoin:round;stroke-miterlimit:2;">
    <g id="surface1">
        <rect x="29" y="48.648" width="8" height="7.391" style="fill:#754600;"/>
        <path d="M45.457,42.246L47.633,47.668C47.707,47.852 47.746,48.043 47.746,48.238C47.746,49.203 46.809,50 45.672,50L20.328,50C19.191,50 18.254,49.203 18.254,48.238C18.254,48.047 18.289,47.852 18.363,47.672L20.543,42.246C19.539,42.176 18.746,41.59 18.746,40.883C18.746,40.734 18.785,40.586 18.855,40.441L22.563,33L22.078,33C21.098,33 20.289,32.59 20.289,32.094C20.289,31.992 20.32,31.895 20.383,31.797L26.859,22.172L26.629,22.172C26.055,22.172 25.586,21.871 25.586,21.508C25.586,21.434 25.602,21.363 25.641,21.293L32.012,9.395C32.152,9.125 32.555,8.945 33,8.945C33.445,8.945 33.844,9.125 33.988,9.395L40.359,21.293C40.395,21.363 40.414,21.434 40.414,21.508C40.414,21.871 39.945,22.172 39.371,22.172L39.141,22.172L45.613,31.797C45.68,31.891 45.711,31.992 45.711,32.094C45.711,32.59 44.902,33 43.922,33L43.434,33L47.145,40.441C47.215,40.582 47.254,40.73 47.254,40.883C47.254,41.59 46.461,42.176 45.457,42.246ZM42.797,41.254L43.922,41.254C44.902,41.254 45.711,40.813 45.711,40.281C45.711,40.176 45.68,40.066 45.613,39.965L40.605,32L42.219,32C43.035,32 43.711,31.59 43.711,31.094C43.711,30.992 43.684,30.895 43.629,30.797L38.23,21.172L38.406,21.172C38.895,21.172 39.293,20.918 39.293,20.609C39.293,20.547 39.277,20.484 39.246,20.426L33.84,10.324C33.715,10.098 33.379,9.945 33,9.945C32.621,9.945 32.281,10.098 32.16,10.324L26.754,20.426C26.723,20.484 26.707,20.547 26.707,20.609C26.707,20.918 27.105,21.172 27.594,21.172L27.988,21.172L22.59,30.801C22.535,30.895 22.508,30.992 22.508,31.094C22.508,31.59 23.184,32 24.004,32L25.395,32L20.383,39.969C20.32,40.066 20.289,40.176 20.289,40.281C20.289,40.813 21.098,41.254 22.078,41.254L23.199,41.254L19.414,47.27C19.348,47.379 19.309,47.492 19.309,47.605C19.309,48.18 20.184,48.648 21.238,48.648L44.762,48.648C45.816,48.648 46.688,48.18 46.688,47.605C46.688,47.488 46.652,47.375 46.586,47.27L42.797,41.254Z" style="fill:#893d00;"/>
        <path d="M33.109,9.434L33.16,9.945L32.629,17.34L28.848,26.512L32.355,21.172L32.035,25.598L28.512,32.809L31.875,27.871L31.359,35.023L25.707,45.438L31.129,38.262L29,48.648L36.977,48.648L35.047,38.262L40.313,46.785L34.828,35.023L34.352,27.871L38.117,33.813L34.176,25.254L33.84,20.262L36.238,23.898L33.637,17.258L33.109,9.434Z" style="fill:#754600;"/>
    </g>
</svg>
